X:51
T:Polonäs, sexdregasamlingen del 1 nr 51 
B:Sexdregasamlingen del 1 nr 51
Z:Per Oldberg 2010-07-19
M:3/4
L:1/16
O:Sexdrega, Västergötland
N:+ har vissa likheter med denna.
R:Polonäs
K:D
d2dc d4 e2g2|f2ef d2cB A2G2|F2a2 E2g2 D2f2|efed cdcB c2A2|
d2dc d2f2 e2g2|fgfe d2cB A2G2|F2a2 E2g2 D2f2|e2dc d4 D4:|
f2ed a4 e2g2|f2ed d2cB A2G2|F2GA B2A2G2F2|GFED [E2A,2][E2A,2][E4A,4]|
f2fg a2ad' e2g2|f2ef d2cB A2G2|F2a2 E2g2 D2f2|e2dc d4D4:|

